X:4
T:Indiff\'erence
R:valse musette
C:Tony Murena (1917-1970)
O:France
Z:id:hn-musette-4
M:3/4
L:1/8
Q:1/4=200
K:Em
B,EGBd | "Em"(3cdc B4 | z Begbd' | "B7"(3c'd'c' b4 | z B^dfab |
(3c'd'c' c'2  (3e'f'e' | ^d'2 (3c'=d'c' b2 | b6 ||
|: z B,EGBd | "Em"(3cdc B4 | z Begbd' | (3c'd'c' b4 |
z B,EGBd | cBe^dfe | gfagfe | "B7"(3efe ^d4 | z2 agfg | f3 e^de | ^d3 cBc | B6 |
z2 ag fg | fe^dedc | BcBAGF | "Em"(3FGF E4 |
z B,EGBd | (3cdc B4 | z Begbd' | (3c'd'c' b4 | 
z B,EGBe | "E7"=fedcBA | ^GABcde | "Am"(3ded c4- | c2
A2B2 | ceAc F2 | z ABcBA | "Em"BeGBE2 | z EFGFE | "F#dim"G6 | "B7"(3FGF E2 ^D2 | "Em"E6 :|
z3 |: "Em"GFE | "B7"^DFAcB^A | B^dfc'b^a | "Em"be'gbeg | Begbag |
"B7"ac'fa^df | B^dfagf | "Em"egBeGB | E3
GFE | "B7"^DFAcB^A | B^dfc'b^a | "Em"be'gbeg | Begbag |
"B7"ac'fa^df | B^dfagf |1 "Em"e2 ^degb | e'3 :|2 "Em"e2 ^deBG | E ||
B,EGBd | "Em"(3cdc B4 | z Begbd' | (3c'd'c' b4 | z
B,EGBd | cBe^dfe | gfagfe | "B7"(3efe ^d4 | z2 agfg | f3 e^de | ^d3 cBc | B6 |
z2 agfg | fe^dedc | BcBAGF | "Em"(3FGF E4 | z
B,EGBd | (3cdc B4 | z Begbd' | (3c'd'c' b4 |
z B,EGBe | "E7"=fedcBA | ^GABcde | "Am"(3ded c4- | c2
A2B2 | ceAc F2 | z ABcBA | "Em"BeGBE2 | z EFGFE| "F#dim"G6 | "B7"(3FGF E2 ^D2 | "Em"E6 ||
"Em"E2 E2 _E2 | "G"D6 | B4 B2 | "B7"B6 | ^D6 | "E7"E2 ^G2 B2 | e4 e2| "Am"e6 | A6 |
"D7"d6 | A2 B2 c2 | "G"B6 | G6 | "F#7"F4 F2 | F2 G2 F2 | "B"F6 |
"D7"FF E2 _E2 |"G"D6 | B4 B2 | "B7"B6 | ^D6 | "E7"E2 ^G2 B2 | e4 e2 | "Am"=f6 | e6 |
"Am"e4 e2 | "C#dim"f4 g2 | "G"g6 | "E7"d2 c2 B2 | "A7"B6 | "D7"A4 B2 | "G"G6 | G ||
B,EGBd | "Em"(3cdc B4 | z Begbd' | (3c'd'c' b4 | z
B,EGBd | cBe^dfe | gfagfe | "B7"(3efe ^d4 | z2 agfg | f3 e^de | ^d3 cBc | B6 |
z2 agfg | fe^dedc | BcBAGF | "Em"(3FGF E4 | z
B,EGBd | (3cdc B4 | z Begbd' | (3c'd'c' b4 |
z B,EGBe | "E7"=fedcBA | ^GABcde | "Am"(3ded c4- | c2
A2B2 | ceAc F2 | z ABcBA | "Em"BeGBE2 | z EFGAB | "F#dim"g6 | "B7"(3fgf e2 ^d2 | "Em"e6 ||

